symbols/web/electric_moped/materialsymbolsoutlined/electric_moped_wght200grad200_24px.svg

<svg xmlns="http://www.w3.org/2000/svg" height="24" width="24"><path d="M7.05 16.875q-1.1 0-1.875-.775-.775-.775-.775-1.875H2.35v-2.7q0-1.55 1.075-2.6t2.625-1.05H9.7v5.1h4.175L17.65 8.25V5.775q0-.275-.175-.45t-.45-.175H14.6V3.9h2.575q.725 0 1.225.525.5.525.5 1.25v3l-4.4 5.55H9.7q0 1.1-.775 1.875-.775.775-1.875.775Zm1.4-3.9Zm-1.425 2.65q.575 0 1-.413.425-.412.425-.987h-2.8q0 .55.412.975.413.425.963.425ZM5.4 6.2V4.95h4.3V6.2ZM19 16.875q-1.1 0-1.875-.775-.775-.775-.775-1.875t.775-1.875q.775-.775 1.875-.775t1.875.762q.775.763.775 1.888 0 1.1-.762 1.875-.763.775-1.888.775Zm0-1.25q.575 0 .988-.413.412-.412.412-.987t-.412-.988q-.413-.412-.963-.412-.575 0-1 .412-.425.413-.425.963 0 .575.413 1 .412.425.987.425ZM13.05 23l-5.425-2.725H11.2V18.4l5.425 2.775H13.05ZM3.6 12.975h4.85v-3.85H6.025q-1 0-1.713.687Q3.6 10.5 3.6 11.5Z"/></svg>

<svg xmlns="http://www.w3.org/2000/svg" height="24" width="24"><path d="M7.05 16.875Q5.95 16.875 5.175 16.1Q4.4 15.325 4.4 14.225H2.35V11.525Q2.35 9.975 3.425 8.925Q4.5 7.875 6.05 7.875H9.7V12.975H13.875L17.65 8.25V5.775Q17.65 5.5 17.475 5.325Q17.3 5.15 17.025 5.15H14.6V3.9H17.175Q17.9 3.9 18.4 4.425Q18.9 4.95 18.9 5.675V8.675L14.5 14.225H9.7Q9.7 15.325 8.925 16.1Q8.15 16.875 7.05 16.875ZM8.45 12.975Q8.45 12.975 8.45 12.975Q8.45 12.975 8.45 12.975ZM7.025 15.625Q7.6 15.625 8.025 15.212Q8.45 14.8 8.45 14.225H5.65Q5.65 14.775 6.062 15.2Q6.475 15.625 7.025 15.625ZM5.4 6.2V4.95H9.7V6.2ZM19 16.875Q17.9 16.875 17.125 16.1Q16.35 15.325 16.35 14.225Q16.35 13.125 17.125 12.35Q17.9 11.575 19 11.575Q20.1 11.575 20.875 12.337Q21.65 13.1 21.65 14.225Q21.65 15.325 20.888 16.1Q20.125 16.875 19 16.875ZM19 15.625Q19.575 15.625 19.988 15.212Q20.4 14.8 20.4 14.225Q20.4 13.65 19.988 13.237Q19.575 12.825 19.025 12.825Q18.45 12.825 18.025 13.237Q17.6 13.65 17.6 14.2Q17.6 14.775 18.013 15.2Q18.425 15.625 19 15.625ZM13.05 23 7.625 20.275H11.2V18.4L16.625 21.175H13.05ZM3.6 12.975H8.45V9.125H6.025Q5.025 9.125 4.312 9.812Q3.6 10.5 3.6 11.5Z"/></svg>
